Adwaita++/devices/16/gnome-dev-printer-new.svg

<svg height="16" width="16" xmlns="http://www.w3.org/2000/svg">
  <g fill="#474747">
    <path d="m4 1v2h8v-2zm-2 3c-.5 0-1 .5-1 1v4c0 .5.5 1 1 1h1v-2h7v-1h4v3c.5 0 1-.5 1-1v-4c0-.5-.5-1-1-1zm2 5v5h3v-4h3v-1z"/>
    <path d="m11 8v3h-3v2h3v3h2v-3h3v-2h-3v-3z"/>
  </g>
</svg>

<svg xmlns="http://www.w3.org/2000/svg" width="16" height="16" version="1.1">
 <defs>
  <style id="current-color-scheme" type="text/css">
   .ColorScheme-Text { color:#474747; } .ColorScheme-Highlight { color:#4285f4; }
  </style>
 </defs>
 <path style="fill:currentColor" class="ColorScheme-Text" d="M 4 1 L 4 3 L 12 3 L 12 1 L 4 1 z M 2 4 C 1.5 4 1 4.5 1 5 L 1 9 C 1 9.5 1.5 10 2 10 L 3 10 L 3 8 L 10 8 L 10 7 L 14 7 L 14 10 C 14.5 10 15 9.5 15 9 L 15 5 C 15 4.5 14.5 4 14 4 L 2 4 z M 4 9 L 4 14 L 7 14 L 7 10 L 10 10 L 10 9 L 4 9 z"/>
 <path style="fill:currentColor" class="ColorScheme-Text" d="M 11,8 V 11 H 8 V 13 H 11 V 16 H 13 V 13 H 16 V 11 H 13 V 8 Z"/>
</svg>
